X: 5274
T: Brookside
R: jig
M: 6/8
K: Amajor
B|Ace {b}agf|efe {gf}ecA|Ace {b}aec|ded BGE|
Ace {b}agf|efe efg|{b}agf ecA|BcB BGE:|
cea cea|eca ecA|BGe BGe|GBe BGE|
eca eca|efe efg|{b}agf ecA|BcB BGE|:|
AEC A,CE|AEC EAc|BGE B,EG|BGE dcB|
ecA EAc|ecA agf|efe dcB|cAA A2:|

